X: 1
T: Mooney's
T: Paddy Ryan's Dream (Donegal Version)
M: 4/4
L: 1/8
R: reel
S: Michelle O'Brien
Z: Dow
K: Amix
cA A/A/A cABG | EDD=C (3A,B,C DB, | =CA,A,G, ~A,2CD | ~E2^GB Afed |
~c2ac cAAG | EDD=C (3A,B,C DB, | =CA,A,G, ~A,2CD |1 ED^GB A3B :|2 ED^GB A3^g ||
|: ae e/e/e ceAc | B/B/Bge dBG^g | a^gae ceAc | B^GED CEA^g |
| a^gae ceAc | ~B2ge dBGB | A2 B/c/d edcd |1 eaa^g a4 :|2 eaa^g gaed ||
